X: 20611
Q: "Briskly."
M: C|
L: 1/8
K: G
g2 |\
d2B2 B2(AG) | B2B2 B2g2 | d2B2 B2(AG) | B2A2 A2(GA) |\
(Bc) |\
d2B2 g2B2 | d2d2 d3e | (ed)(cB) g2(fg) | a2A2 A2(GA) |\


